X: 1
T: Lament of the First Generation
C: by Liz Carroll
R: air, waltz
Z: 2020 John Chambers <jc:trillian.mit.edu> 2020-7-24
S: https://www.facebook.com/groups/Fiddletuneoftheday/
S: https://www.facebook.com/groups/Fiddletuneoftheday/photos/
M: 3/4
L: 1/8
K: G
D |\
"G"d2 Bc BA | G2 "C"E3 d | "G"d2 Bc d/c/B | G2 "C"c3d |\
"G"d2 Bc BA | "Em"G2 A2 B2 | "C"A3 B AG | E2 "D"D3 :|
E/D/ |\
"G"G,D Bc/B/ AB | "C"G2 A2 B2 | "G"G,D Bc/B/ AB | G2 "C"E3 G |\
"G"G,D B2 AB | "Em"G2 A2 B2 | "C"A3 B AG | E2 "D"D3 |]
D/D/ |\
"G"D2 d2 dD | "D"AD BD cD | "G"Bc dB GF | "C"G2 E3 G |\
"G"d2 Bc BA | "Em"G2 A2 B2 | "C"A3 B AG | E2 "D"D3 |]
